images/service-1/responsibilities-1.svg

<svg width="75" height="75" viewBox="0 0 75 75" fill="none" xmlns="http://www.w3.org/2000/svg">
<path d="M7 6.81812C6.448 6.81812 6 7.2535 6 7.79214V68.1818C6 68.7204 6.448 69.1558 7 69.1558H69C69.553 69.1558 70 68.7204 70 68.1818V7.79214C70 7.2535 69.553 6.81812 69 6.81812H7ZM8 8.76617H68V67.2077H8V8.76617ZM13.5 20.4545C13.224 20.4545 13 20.6727 13 20.9415V25.8116C13 26.0805 13.224 26.2986 13.5 26.2986H62.5C62.776 26.2986 63 26.0805 63 25.8116V20.9415C63 20.6727 62.776 20.4545 62.5 20.4545H58.5C58.224 20.4545 58 20.6727 58 20.9415C58 21.2103 58.224 21.4285 58.5 21.4285H62V25.3246H14V21.4285H49.5C49.776 21.4285 50 21.2103 50 20.9415C50 20.6727 49.776 20.4545 49.5 20.4545H13.5ZM51.5 20.4545C51.224 20.4545 51 20.6727 51 20.9415C51 21.2103 51.224 21.4285 51.5 21.4285H55.5C55.776 21.4285 56 21.2103 56 20.9415C56 20.6727 55.776 20.4545 55.5 20.4545H51.5ZM13.5 30.1947C13.224 30.1947 13 30.4129 13 30.6818V35.5519C13 35.8207 13.224 36.0389 13.5 36.0389H57.5C57.776 36.0389 58 35.8207 58 35.5519V30.6818C58 30.4129 57.776 30.1947 57.5 30.1947H25.5C25.224 30.1947 25 30.4129 25 30.6818C25 30.9506 25.224 31.1688 25.5 31.1688H57V35.0649H14V31.1688H20.5C20.776 31.1688 21 30.9506 21 30.6818C21 30.4129 20.776 30.1947 20.5 30.1947H13.5ZM13.5 39.935C13.224 39.935 13 40.1532 13 40.422V45.2921C13 45.561 13.224 45.7792 13.5 45.7792H37.5C37.776 45.7792 38 45.561 38 45.2921C38 45.0233 37.776 44.8051 37.5 44.8051H14V40.909H51V44.8051H45.5C45.224 44.8051 45 45.0233 45 45.2921C45 45.561 45.224 45.7792 45.5 45.7792H51.5C51.776 45.7792 52 45.561 52 45.2921V40.422C52 40.1532 51.776 39.935 51.5 39.935H13.5ZM39.5 44.8051C39.224 44.8051 39 45.0233 39 45.2921C39 45.561 39.224 45.7792 39.5 45.7792H42.5C42.776 45.7792 43 45.561 43 45.2921C43 45.0233 42.776 44.8051 42.5 44.8051H39.5ZM13.5 49.6753C13.224 49.6753 13 49.8934 13 50.1623V55.0324C13 55.3012 13.224 55.5194 13.5 55.5194H21.5C21.776 55.5194 22 55.3012 22 55.0324C22 54.7636 21.776 54.5454 21.5 54.5454H14V50.6493H60V54.5454H27.5C27.224 54.5454 27 54.7636 27 55.0324C27 55.3012 27.224 55.5194 27.5 55.5194H60.5C60.776 55.5194 61 55.3012 61 55.0324V50.1623C61 49.8934 60.776 49.6753 60.5 49.6753H13.5Z" fill="#E4B564"/>
</svg>

<svg width="75" height="75" fill="none" xmlns="http://www.w3.org/2000/svg"><path d="M7 6.818c-.552 0-1 .436-1 .974v60.39c0 .538.448.974 1 .974h62c.553 0 1-.436 1-.974V7.792a.986.986 0 00-1-.974H7zm1 1.948h60v58.442H8V8.766zm5.5 11.688c-.276 0-.5.219-.5.488v4.87c0 .268.224.487.5.487h49c.276 0 .5-.218.5-.487v-4.87a.494.494 0 00-.5-.488h-4c-.276 0-.5.219-.5.488 0 .268.224.486.5.486H62v3.897H14v-3.896h35.5c.276 0 .5-.219.5-.487a.494.494 0 00-.5-.488h-36zm38 0c-.276 0-.5.219-.5.488 0 .268.224.486.5.486h4c.276 0 .5-.218.5-.486a.494.494 0 00-.5-.488h-4zm-38 9.74c-.276 0-.5.219-.5.488v4.87c0 .269.224.487.5.487h44c.276 0 .5-.218.5-.487v-4.87a.494.494 0 00-.5-.487h-32c-.276 0-.5.218-.5.487s.224.487.5.487H57v3.896H14v-3.896h6.5c.276 0 .5-.218.5-.487a.494.494 0 00-.5-.487h-7zm0 9.741c-.276 0-.5.218-.5.487v4.87c0 .269.224.487.5.487h24c.276 0 .5-.218.5-.487a.494.494 0 00-.5-.487H14V40.91h37v3.896h-5.5c-.276 0-.5.218-.5.487s.224.487.5.487h6c.276 0 .5-.218.5-.487v-4.87a.494.494 0 00-.5-.487h-38zm26 4.87c-.276 0-.5.218-.5.487s.224.487.5.487h3c.276 0 .5-.218.5-.487a.494.494 0 00-.5-.487h-3zm-26 4.87c-.276 0-.5.218-.5.487v4.87c0 .27.224.487.5.487h8c.276 0 .5-.218.5-.487a.494.494 0 00-.5-.487H14V50.65h46v3.896H27.5c-.276 0-.5.219-.5.487 0 .27.224.487.5.487h33c.276 0 .5-.218.5-.487v-4.87a.494.494 0 00-.5-.487h-47z" fill="#E4B564"/></svg>
